icons/reactbootstrap-light.svg

<svg width="256" height="256" viewBox="0 0 256 256" fill="none" xmlns="http://www.w3.org/2000/svg">
<path d="M196 0H60C26.8629 0 0 26.8629 0 60V196C0 229.137 26.8629 256 60 256H196C229.137 256 256 229.137 256 196V60C256 26.8629 229.137 0 196 0Z" fill="#F4F2ED"/>
<path d="M99.8071 127.087C101.311 124.028 102.894 120.957 104.522 117.958L104.536 117.932L106.265 114.586L108.817 110.366L108.833 110.339C109.786 108.72 110.775 107.086 111.772 105.483L113.529 102.588C115.867 98.7247 117.747 95.9075 120.712 91.8251C122.31 89.6278 123.825 87.6987 126.226 84.7052L126.231 84.6995L126.35 84.5504L126.396 84.4913C127.37 83.2515 128.354 82.0295 129.32 80.8591L129.352 80.8197L129.37 80.7963C131.61 78.0288 133.893 75.2509 136.155 72.5434L137.055 71.4668V55.566H135.428C134.56 54.7519 133.674 53.9435 132.789 53.1567C125.616 46.8057 118.462 41.8231 111.522 38.3587C104.407 34.8025 97.8352 33 91.9921 33C87.8201 33 84.0917 33.9322 80.9103 35.7694C77.851 37.5363 75.2805 40.1687 73.2683 43.5946C71.3829 46.8048 69.9938 50.7118 69.1376 55.2058C67.4891 63.8685 67.8462 74.7126 70.1714 86.5611C70.4647 88.0523 70.788 89.5622 71.1348 91.0627C69.2795 91.6254 67.4778 92.205 65.7654 92.8005C54.5566 96.7 45.1825 101.795 38.658 107.537C35.2745 110.511 32.6579 113.655 30.8675 116.88C28.9652 120.31 28 123.828 28 127.336C28 134.37 31.9051 141.497 39.2924 147.962C46.2474 154.052 56.083 159.368 67.7278 163.343C68.8096 163.709 69.9102 164.066 71.0173 164.406C70.6301 166.088 70.272 167.782 69.9496 169.471C67.7353 181.107 67.4769 191.755 69.1978 200.264C70.0916 204.672 71.5107 208.507 73.4168 211.665C75.4431 215.023 78.0155 217.615 81.0616 219.368C84.2712 221.214 88.0485 222.15 92.2882 222.15C98.0608 222.15 104.515 220.442 111.472 217.074C118.291 213.772 125.253 209.042 132.161 203.017C133.226 202.088 134.322 201.095 135.418 200.06H137.055V183.705L136.459 182.973L136.177 182.629L128.675 173.387L124.507 168.252C122.402 165.66 119.032 160.863 115.014 154.748C111.818 149.886 109.491 145.982 108.388 144.091L108.268 143.884C106.342 140.571 104.911 137.901 103.763 135.759C102.325 133.074 100.907 130.331 99.542 127.599L99.792 127.115L99.8071 127.087ZM92.2074 110.873C90.9357 107.619 89.7713 104.39 88.7299 101.232C91.979 100.563 95.3568 99.9626 98.8165 99.4393C97.6623 101.325 96.5288 103.229 95.433 105.126C94.3371 107.024 93.26 108.942 92.2074 110.873ZM88.6124 154.21C89.6886 150.941 90.8972 147.593 92.2205 144.214C93.2816 146.155 94.37 148.087 95.4706 149.984C96.6238 151.972 97.8202 153.968 99.0373 155.947C95.4226 155.448 91.9301 154.866 88.6124 154.211V154.21ZM82.8125 59.3754C83.6584 53.5853 85.5513 49.4467 88.0165 48.0221C89.04 47.4303 90.3981 47.1312 92.0514 47.1312C95.667 47.1312 100.345 48.5473 105.577 51.2266C111.248 54.1339 117.397 58.4582 123.361 63.7419C123.731 64.0695 124.109 64.41 124.495 64.7632C119.25 70.5506 114.081 76.9812 109.112 83.9043C100.645 84.7295 92.5062 85.9618 84.8859 87.5721C84.6105 86.3679 84.352 85.1572 84.1152 83.9615L84.0926 83.8377C82.2759 74.5757 81.8332 66.1128 82.8125 59.3754ZM83.8755 127.555C80.2947 135.433 77.2514 143.232 74.8181 150.763C73.9722 150.5 73.1367 150.226 72.3134 149.947C62.6328 146.645 54.5698 142.382 48.9974 137.621C44.7332 133.978 42.1881 130.134 42.1881 127.34C42.1881 124.471 44.7342 120.775 49.175 117.192C54.3442 113.022 61.7005 109.211 70.4337 106.173C71.9177 105.659 73.429 105.167 74.945 104.706C77.3444 112.127 80.3473 119.804 83.8746 127.554L83.8755 127.555ZM83.8868 172.095C84.1556 170.688 84.4507 169.273 84.7731 167.866C92.292 169.401 100.524 170.558 109.28 171.309C114.297 178.28 119.509 184.754 124.792 190.575C124.14 191.175 123.482 191.765 122.828 192.338C115.18 199.008 107.5 203.831 100.621 206.284L100.478 206.335C97.3954 207.421 94.6425 207.971 92.3014 207.971C90.5739 207.971 89.1792 207.673 88.1556 207.084C85.6641 205.65 83.7252 201.601 82.836 195.975C81.7966 189.419 82.1603 181.161 83.8859 172.094L83.8868 172.095Z" fill="#41E0FD"/>
<path d="M222.653 135.146C219.128 128.678 213.942 124.482 207.094 122.558C207.042 122.537 206.997 122.499 206.967 122.451C206.936 122.403 206.922 122.347 206.926 122.29C206.924 122.241 206.934 122.192 206.957 122.147C206.979 122.103 207.013 122.066 207.055 122.039C212.153 119.211 216.071 115.183 218.817 110.044C221.584 104.862 222.967 98.6255 222.968 91.3355C222.968 79.3079 219.918 70.361 213.845 64.4096C207.773 58.4581 199.689 55.5002 189.625 55.5002H135.269C135.151 55.5002 135.055 55.6231 135.055 55.775V199.781C135.055 199.933 135.149 200.056 135.269 200.056H186.638C193.87 200.056 200.108 199.003 205.352 196.896C210.607 194.794 214.882 191.956 218.248 188.392C221.613 184.828 224.067 180.577 225.641 175.638C227.214 170.739 228 165.434 228 159.766C228.003 149.884 226.206 141.706 222.653 135.146ZM154.765 76.2506C154.765 76.0987 154.859 75.9758 154.978 75.9758H186.883C192.235 75.9758 196.329 77.4763 199.162 80.4352C201.995 83.394 203.41 88.538 203.41 95.8324C203.41 102.32 201.837 107.266 198.687 110.751C195.538 114.236 191.604 115.939 186.88 115.939H154.976C154.859 115.939 154.763 115.817 154.763 115.665L154.765 76.2506ZM203.465 173.391C200.188 177.401 195.531 179.393 189.548 179.393H154.976C154.859 179.393 154.763 179.27 154.763 179.118V134.44C154.763 134.288 154.857 134.165 154.976 134.165H189.546C195.529 134.165 200.126 136.03 203.463 139.919C206.799 143.807 208.437 149.28 208.437 156.453C208.439 163.746 206.768 169.42 203.465 173.391Z" fill="#41E0FD"/>
</svg>

<svg xmlns="http://www.w3.org/2000/svg" width="256" height="256" fill="none"><path fill="#F4F2ED" d="M196 0H60C26.863 0 0 26.863 0 60v136c0 33.137 26.863 60 60 60h136c33.137 0 60-26.863 60-60V60c0-33.137-26.863-60-60-60"/><path fill="#41E0FD" d="M99.807 127.087a255 255 0 0 1 4.715-9.129l.014-.026 1.729-3.346 2.552-4.22.016-.027a234 234 0 0 1 2.939-4.856l1.757-2.895c2.338-3.863 4.218-6.68 7.183-10.763 1.598-2.197 3.113-4.126 5.514-7.12l.005-.005.119-.15.046-.059c.974-1.24 1.958-2.462 2.924-3.632l.032-.04.018-.023a691 691 0 0 1 6.785-8.253l.9-1.076V55.566h-1.627a135 135 0 0 0-2.639-2.41c-7.173-6.35-14.327-11.333-21.267-14.797C104.407 34.803 97.835 33 91.992 33c-4.172 0-7.9.932-11.082 2.77-3.059 1.766-5.63 4.399-7.642 7.825-1.885 3.21-3.274 7.117-4.13 11.61-1.649 8.664-1.292 19.508 1.033 31.356.294 1.491.617 3.001.964 4.502a141 141 0 0 0-5.37 1.737c-11.208 3.9-20.583 8.995-27.107 14.737-3.383 2.974-6 6.118-7.79 9.343-1.903 3.43-2.868 6.948-2.868 10.456 0 7.034 3.905 14.161 11.292 20.626 6.955 6.09 16.791 11.406 28.436 15.381 1.082.366 2.182.723 3.29 1.063a138 138 0 0 0-1.068 5.065c-2.215 11.636-2.473 22.284-.752 30.793.894 4.408 2.313 8.243 4.219 11.401 2.026 3.358 4.599 5.95 7.645 7.703 3.21 1.846 6.987 2.782 11.226 2.782 5.773 0 12.227-1.708 19.184-5.076 6.819-3.302 13.781-8.032 20.689-14.057a112 112 0 0 0 3.257-2.957h1.637v-16.355l-.596-.732-.282-.344-7.502-9.242-4.168-5.135c-2.105-2.592-5.475-7.389-9.493-13.504a240 240 0 0 1-6.626-10.657l-.12-.207c-1.926-3.313-3.357-5.983-4.505-8.125a326 326 0 0 1-4.221-8.16l.25-.484zm-7.6-16.214a190 190 0 0 1-3.477-9.641 194 194 0 0 1 10.087-1.793 261 261 0 0 0-6.61 11.434m-3.595 43.337a193 193 0 0 1 3.609-9.996 261 261 0 0 0 6.816 11.733 184 184 0 0 1-10.425-1.736zm-5.8-94.835c.846-5.79 2.74-9.928 5.204-11.353 1.024-.592 2.382-.89 4.035-.89 3.616 0 8.294 1.415 13.526 4.095 5.671 2.907 11.82 7.231 17.784 12.515q.555.492 1.134 1.021c-5.245 5.788-10.414 12.218-15.383 19.141-8.467.826-16.606 2.058-24.226 3.668a126 126 0 0 1-.77-3.61l-.023-.124c-1.817-9.262-2.26-17.725-1.28-24.463m1.064 68.18c-3.581 7.878-6.625 15.677-9.058 23.208q-1.269-.396-2.505-.816c-9.68-3.302-17.743-7.565-23.316-12.326-4.264-3.643-6.809-7.487-6.809-10.281 0-2.869 2.546-6.565 6.987-10.148 5.17-4.17 12.526-7.981 21.259-11.019a124 124 0 0 1 4.511-1.467c2.4 7.421 5.402 15.098 8.93 22.848zm.01 44.54a122 122 0 0 1 .887-4.229c7.519 1.535 15.751 2.692 24.507 3.443 5.017 6.971 10.229 13.445 15.512 19.266-.652.6-1.31 1.19-1.964 1.763-7.648 6.67-15.328 11.493-22.207 13.946l-.143.051c-3.083 1.086-5.835 1.636-8.177 1.636-1.727 0-3.122-.298-4.145-.887-2.492-1.434-4.43-5.483-5.32-11.109-1.04-6.556-.676-14.814 1.05-23.881z"/><path fill="#41E0FD" d="M222.653 135.146q-5.287-9.702-15.559-12.588a.27.27 0 0 1-.168-.268.29.29 0 0 1 .129-.251c5.098-2.828 9.016-6.856 11.762-11.995q4.15-7.773 4.151-18.708c0-12.028-3.05-20.975-9.123-26.926-6.072-5.952-14.156-8.91-24.22-8.91h-54.356c-.118 0-.214.123-.214.275v144.006c0 .152.094.275.214.275h51.369q10.848 0 18.714-3.16c5.255-2.102 9.53-4.94 12.896-8.504 3.365-3.564 5.819-7.815 7.393-12.754 1.573-4.899 2.359-10.204 2.359-15.872.003-9.882-1.794-18.06-5.347-24.62m-67.888-58.895c0-.152.094-.275.213-.275h31.905c5.352 0 9.446 1.5 12.279 4.46 2.833 2.958 4.248 8.102 4.248 15.396 0 6.488-1.573 11.434-4.723 14.919s-7.083 5.188-11.807 5.188h-31.904c-.117 0-.213-.122-.213-.274zm48.7 97.14c-3.277 4.01-7.934 6.002-13.917 6.002h-34.572c-.117 0-.213-.123-.213-.275V134.44c0-.152.094-.275.213-.275h34.57c5.983 0 10.58 1.865 13.917 5.754s4.974 9.361 4.974 16.534c.002 7.293-1.669 12.967-4.972 16.938"/></svg>
